; generated by PrusaSlicer 2.2.0+linux-x64 on 2020-11-23 at 21:39:59 UTC

; 

; external perimeters extrusion width = 0.45mm
; perimeters extrusion width = 0.45mm
; infill extrusion width = 0.45mm
; solid infill extrusion width = 0.45mm
; top infill extrusion width = 0.40mm
; first layer extrusion width = 0.70mm

M107
M104 S200 ; set temperature
G28 ; home all axes
G1 Z5 F5000 ; lift nozzle
M109 S200 ; set temperature and wait for it to be reached
G21 ; set units to millimeters
G90 ; use absolute coordinates
M82 ; use absolute distances for extrusion
G92 E0
; Filament gcode
G1 Z0.350 F7800.000
G1 E-2.00000 F2400.00000
G92 E0
G1 X90.147 Y90.491 F7800.000
G1 E2.00000 F2400.00000
G1 F1800.000
G1 X91.174 Y89.592 E2.12409
G1 X92.363 Y88.923 E2.24819
G1 X93.670 Y88.510 E2.37286
G1 X94.920 Y88.376 E2.48717
G1 X105.006 Y88.375 E3.40428
G1 X106.076 Y88.463 E3.50189
G1 X107.112 Y88.721 E3.59892
G1 X108.098 Y89.144 E3.69653
G1 X108.998 Y89.718 E3.79357
G1 X109.799 Y90.433 E3.89118
G1 X110.470 Y91.262 E3.98821
G1 X110.999 Y92.189 E4.08525
G1 X111.374 Y93.195 E4.18286
G1 X111.553 Y94.027 E4.26028
G1 X111.624 Y94.870 E4.33713
G1 X111.618 Y105.305 E5.28603
G1 X111.530 Y106.120 E5.36057
G1 X111.341 Y106.918 E5.43511
G1 X111.053 Y107.692 E5.51023
G1 X110.674 Y108.419 E5.58477
G1 X109.753 Y109.615 E5.72209
G1 X108.589 Y110.568 E5.85883
G1 X107.241 Y111.234 E5.99557
G1 X105.777 Y111.579 E6.13231
G1 X94.581 Y111.612 E7.15042
G1 X93.021 Y111.322 E7.29462
G1 X91.581 Y110.674 E7.43826
G1 X90.385 Y109.753 E7.57557
G1 X89.432 Y108.589 E7.71231
G1 X88.766 Y107.241 E7.84905
G1 X88.421 Y105.777 E7.98579
G1 X88.388 Y94.581 E9.00390
G1 X88.678 Y93.021 E9.14811
G1 X89.326 Y91.581 E9.29174
G1 X90.111 Y90.539 E9.41038
G1 E7.41038 F2400.00000
G92 E0
G1 X103.200 Y103.200 F7800.000
G1 E2.00000 F2400.00000
G1 F1800.000
G1 X96.800 Y103.200 E2.58199
G1 X96.800 Y96.800 E3.16398
G1 X103.200 Y96.800 E3.74597
G1 X103.200 Y103.140 E4.32250
G1 X103.825 Y103.825 F7800.000
G1 F1800.000
G1 X96.175 Y103.825 E5.01813
G1 X96.175 Y96.175 E5.71377
G1 X103.825 Y96.175 E6.40940
G1 X103.825 Y103.765 E7.09957
G1 X104.450 Y104.450 F7800.000
G1 F1800.000
G1 X95.550 Y104.450 E7.90885
G1 X95.550 Y95.550 E8.71812
G1 X104.450 Y95.550 E9.52739
G1 X104.450 Y104.390 E10.33121
G1 X104.064 Y104.346 F7800.000
G1 E8.33121 F2400.00000
G92 E0
G1 X96.987 Y101.670 F7800.000
G1 E2.00000 F2400.00000
G1 F1800.000
G1 X98.048 Y102.732 E2.14463
G1 X98.985 Y102.732 E2.23489
G1 X97.268 Y101.015 E2.46885
G1 X97.268 Y100.078 E2.55911
G1 X99.922 Y102.732 E2.92072
G1 X100.858 Y102.732 E3.01098
G1 X97.268 Y99.142 E3.50024
G1 X97.268 Y98.205 E3.59050
G1 X101.795 Y102.732 E4.20741
G1 X102.731 Y102.732 E4.29768
G1 X97.268 Y97.268 E5.04224
G1 X98.205 Y97.268 E5.13250
G1 X102.732 Y101.795 E5.74943
G1 X102.732 Y100.858 E5.83969
G1 X99.142 Y97.268 E6.32897
G1 X100.078 Y97.268 E6.41923
G1 X102.732 Y99.922 E6.78086
G1 X102.732 Y98.985 E6.87112
G1 X101.015 Y97.268 E7.10509
G1 X101.951 Y97.268 E7.19536
G1 X103.013 Y98.330 E7.34000
G1 Z0.650 F7800.000
G1 E5.34000 F2400.00000
G92 E0
G1 X104.004 Y104.004 F7800.000
G1 E2.00000 F2400.00000
G1 F900.000
G1 X95.996 Y104.004 E2.38513
G1 X95.996 Y95.996 E2.77027
G1 X104.004 Y95.996 E3.15540
G1 X104.004 Y103.944 E3.53765
G1 X104.389 Y104.389 F7800.000
G1 F900.000
G1 X95.611 Y104.389 E3.95988
G1 X95.611 Y95.611 E4.38211
G1 X104.389 Y95.611 E4.80434
G1 X104.389 Y104.329 E5.22368
G1 X104.775 Y104.775 F7800.000
G1 F900.000
G1 X95.225 Y104.775 E5.68300
G1 X95.225 Y95.225 E6.14233
G1 X104.775 Y95.225 E6.60165
G1 X104.775 Y104.715 E7.05808
G1 X104.389 Y104.671 F7800.000
G1 E5.05808 F2400.00000
G92 E0
G1 X96.109 Y96.808 F7800.000
G1 E2.00000 F2400.00000
G1 F900.000
G1 X96.657 Y96.260 E2.03338
G1 X97.146 Y96.260 E2.05442
G1 X96.260 Y97.146 E2.10836
G1 X96.260 Y97.634 E2.12940
G1 X97.634 Y96.260 E2.21309
G1 X98.123 Y96.260 E2.23413
G1 X96.260 Y98.123 E2.34757
G1 X96.260 Y98.611 E2.36861
G1 X98.611 Y96.260 E2.51181
G1 X99.100 Y96.260 E2.53285
G1 X96.260 Y99.100 E2.70580
G1 X96.260 Y99.588 E2.72684
G1 X99.588 Y96.260 E2.92954
G1 X100.076 Y96.260 E2.95058
G1 X96.260 Y100.076 E3.18304
G1 X96.260 Y100.565 E3.20408
G1 X100.565 Y96.260 E3.46630
G1 X101.053 Y96.260 E3.48733
G1 X96.260 Y101.053 E3.77930
G1 X96.260 Y101.542 E3.80034
G1 X101.542 Y96.260 E4.12206
G1 X102.030 Y96.260 E4.14310
G1 X96.260 Y102.030 E4.49457
G1 X96.260 Y102.518 E4.51561
G1 X102.518 Y96.260 E4.89684
G1 X103.007 Y96.260 E4.91788
G1 X96.260 Y103.007 E5.32886
G1 X96.260 Y103.495 E5.34990
G1 X103.495 Y96.260 E5.79064
G1 X103.740 Y96.260 E5.80116
G1 X103.740 Y96.505 E5.81168
G1 X96.505 Y103.740 E6.25242
G1 X96.993 Y103.740 E6.27346
G1 X103.740 Y96.993 E6.68445
G1 X103.740 Y97.481 E6.70549
G1 X97.481 Y103.740 E7.08672
G1 X97.970 Y103.740 E7.10776
G1 X103.740 Y97.970 E7.45924
G1 X103.740 Y98.458 E7.48028
G1 X98.458 Y103.740 E7.80201
G1 X98.947 Y103.740 E7.82305
G1 X103.740 Y98.947 E8.11502
G1 X103.740 Y99.435 E8.13606
G1 X99.435 Y103.740 E8.39828
G1 X99.924 Y103.740 E8.41932
G1 X103.740 Y99.924 E8.65178
G1 X103.740 Y100.412 E8.67282
G1 X100.412 Y103.740 E8.87553
G1 X100.900 Y103.740 E8.89657
G1 X103.740 Y100.900 E9.06953
G1 X103.740 Y101.389 E9.09057
G1 X101.389 Y103.740 E9.23378
G1 X101.877 Y103.740 E9.25481
G1 X103.740 Y101.877 E9.36827
G1 X103.740 Y102.366 E9.38930
G1 X102.366 Y103.740 E9.47300
G1 X102.854 Y103.740 E9.49404
G1 X103.740 Y102.854 E9.54798
G1 X103.740 Y103.342 E9.56902
G1 X103.191 Y103.891 E9.60241
G1 Z0.950 F7800.000
G1 X104.451 Y104.451
G1 F887
G1 X95.549 Y104.451 E10.03052
G1 X95.549 Y95.549 E10.45863
G1 X104.451 Y95.549 E10.88675
G1 X104.451 Y104.391 E11.31197
G1 X104.554 Y104.837 F7800.000
G1 X104.775 Y104.775
G1 F887
G1 X95.225 Y104.775 E11.77129
G1 X95.225 Y95.225 E12.23062
G1 X104.775 Y95.225 E12.68994
G1 X104.775 Y104.715 E13.14637
G1 X104.389 Y104.671 F7800.000
M106 S252.45
G1 Z1.250 F7800.000
G1 X104.451 Y104.451
G1 F886
G1 X95.549 Y104.451 E13.57448
G1 X95.549 Y95.549 E14.00260
G1 X104.451 Y95.549 E14.43071
G1 X104.451 Y104.391 E14.85593
G1 X104.554 Y104.837 F7800.000
G1 X104.775 Y104.775
G1 F886
G1 X95.225 Y104.775 E15.31525
G1 X95.225 Y95.225 E15.77458
G1 X104.775 Y95.225 E16.23390
G1 X104.775 Y104.715 E16.69033
G1 X104.389 Y104.671 F7800.000
G1 Z1.550 F7800.000
G1 X104.451 Y104.451
G1 F886
G1 X95.549 Y104.451 E17.11844
G1 X95.549 Y95.549 E17.54656
G1 X104.451 Y95.549 E17.97467
G1 X104.451 Y104.391 E18.39989
G1 X104.554 Y104.837 F7800.000
G1 X104.775 Y104.775
G1 F886
G1 X95.225 Y104.775 E18.85921
G1 X95.225 Y95.225 E19.31854
G1 X104.775 Y95.225 E19.77786
G1 X104.775 Y104.715 E20.23429
G1 X104.389 Y104.671 F7800.000
G1 Z1.850 F7800.000
G1 X104.451 Y104.451
G1 F886
G1 X95.549 Y104.451 E20.66241
G1 X95.549 Y95.549 E21.09052
G1 X104.451 Y95.549 E21.51863
G1 X104.451 Y104.391 E21.94385
G1 X104.554 Y104.837 F7800.000
G1 X104.775 Y104.775
G1 F886
G1 X95.225 Y104.775 E22.40317
G1 X95.225 Y95.225 E22.86250
G1 X104.775 Y95.225 E23.32182
G1 X104.775 Y104.715 E23.77825
G1 X104.389 Y104.671 F7800.000
G1 Z2.150 F7800.000
G1 X104.451 Y104.451
G1 F886
G1 X95.549 Y104.451 E24.20637
G1 X95.549 Y95.549 E24.63448
G1 X104.451 Y95.549 E25.06259
G1 X104.451 Y104.391 E25.48781
G1 X104.554 Y104.837 F7800.000
G1 X104.775 Y104.775
G1 F886
G1 X95.225 Y104.775 E25.94713
G1 X95.225 Y95.225 E26.40646
G1 X104.775 Y95.225 E26.86578
G1 X104.775 Y104.715 E27.32222
G1 X104.389 Y104.671 F7800.000
G1 Z2.450 F7800.000
G1 X104.451 Y104.451
G1 F886
G1 X95.549 Y104.451 E27.75033
G1 X95.549 Y95.549 E28.17844
G1 X104.451 Y95.549 E28.60655
G1 X104.451 Y104.391 E29.03177
G1 X104.554 Y104.837 F7800.000
G1 X104.775 Y104.775
G1 F886
G1 X95.225 Y104.775 E29.49109
G1 X95.225 Y95.225 E29.95042
G1 X104.775 Y95.225 E30.40974
G1 X104.775 Y104.715 E30.86618
G1 X104.389 Y104.671 F7800.000
G1 Z2.750 F7800.000
G1 X104.451 Y104.451
G1 F886
G1 X95.549 Y104.451 E31.29429
G1 X95.549 Y95.549 E31.72240
G1 X104.451 Y95.549 E32.15051
G1 X104.451 Y104.391 E32.57573
G1 X104.554 Y104.837 F7800.000
G1 X104.775 Y104.775
G1 F886
G1 X95.225 Y104.775 E33.03505
G1 X95.225 Y95.225 E33.49438
G1 X104.775 Y95.225 E33.95370
G1 X104.775 Y104.715 E34.41014
G1 X104.389 Y104.671 F7800.000
G1 Z3.050 F7800.000
G1 X104.451 Y104.451
G1 F886
G1 X95.549 Y104.451 E34.83825
G1 X95.549 Y95.549 E35.26636
G1 X104.451 Y95.549 E35.69447
G1 X104.451 Y104.391 E36.11969
G1 X104.554 Y104.837 F7800.000
G1 X104.775 Y104.775
G1 F886
G1 X95.225 Y104.775 E36.57901
G1 X95.225 Y95.225 E37.03834
G1 X104.775 Y95.225 E37.49766
G1 X104.775 Y104.715 E37.95410
G1 X104.389 Y104.671 F7800.000
G1 Z3.350 F7800.000
G1 X104.451 Y104.451
G1 F886
G1 X95.549 Y104.451 E38.38221
G1 X95.549 Y95.549 E38.81032
G1 X104.451 Y95.549 E39.23843
G1 X104.451 Y104.391 E39.66365
G1 X104.554 Y104.837 F7800.000
G1 X104.775 Y104.775
G1 F886
G1 X95.225 Y104.775 E40.12297
G1 X95.225 Y95.225 E40.58230
G1 X104.775 Y95.225 E41.04162
G1 X104.775 Y104.715 E41.49806
G1 X104.389 Y104.671 F7800.000
G1 Z3.650 F7800.000
G1 X104.451 Y104.451
G1 F886
G1 X95.549 Y104.451 E41.92617
G1 X95.549 Y95.549 E42.35428
G1 X104.451 Y95.549 E42.78239
G1 X104.451 Y104.391 E43.20761
G1 X104.554 Y104.837 F7800.000
G1 X104.775 Y104.775
G1 F886
G1 X95.225 Y104.775 E43.66694
G1 X95.225 Y95.225 E44.12626
G1 X104.775 Y95.225 E44.58558
G1 X104.775 Y104.715 E45.04202
G1 X104.389 Y104.671 F7800.000
G1 Z3.950 F7800.000
G1 X104.451 Y104.451
G1 F886
G1 X95.549 Y104.451 E45.47013
G1 X95.549 Y95.549 E45.89824
G1 X104.451 Y95.549 E46.32635
G1 X104.451 Y104.391 E46.75157
G1 X104.554 Y104.837 F7800.000
G1 X104.775 Y104.775
G1 F886
G1 X95.225 Y104.775 E47.21090
G1 X95.225 Y95.225 E47.67022
G1 X104.775 Y95.225 E48.12954
G1 X104.775 Y104.715 E48.58598
G1 X104.389 Y104.671 F7800.000
G1 Z4.250 F7800.000
G1 X104.451 Y104.451
G1 F886
G1 X95.549 Y104.451 E49.01409
G1 X95.549 Y95.549 E49.44220
G1 X104.451 Y95.549 E49.87031
G1 X104.451 Y104.391 E50.29553
G1 X104.554 Y104.837 F7800.000
G1 X104.775 Y104.775
G1 F886
G1 X95.225 Y104.775 E50.75486
G1 X95.225 Y95.225 E51.21418
G1 X104.775 Y95.225 E51.67350
G1 X104.775 Y104.715 E52.12994
G1 X104.389 Y104.671 F7800.000
G1 Z4.550 F7800.000
G1 X104.451 Y104.451
G1 F886
G1 X95.549 Y104.451 E52.55805
G1 X95.549 Y95.549 E52.98616
G1 X104.451 Y95.549 E53.41427
G1 X104.451 Y104.391 E53.83949
G1 X104.554 Y104.837 F7800.000
G1 X104.775 Y104.775
G1 F886
G1 X95.225 Y104.775 E54.29882
G1 X95.225 Y95.225 E54.75814
G1 X104.775 Y95.225 E55.21746
G1 X104.775 Y104.715 E55.67390
G1 X104.389 Y104.671 F7800.000
G1 Z4.850 F7800.000
G1 X104.451 Y104.451
G1 F886
G1 X95.549 Y104.451 E56.10201
G1 X95.549 Y95.549 E56.53012
G1 X104.451 Y95.549 E56.95823
G1 X104.451 Y104.391 E57.38345
G1 X104.554 Y104.837 F7800.000
G1 X104.775 Y104.775
G1 F886
G1 X95.225 Y104.775 E57.84278
G1 X95.225 Y95.225 E58.30210
G1 X104.775 Y95.225 E58.76142
G1 X104.775 Y104.715 E59.21786
G1 X104.389 Y104.671 F7800.000
G1 Z5.150 F7800.000
G1 X104.451 Y104.451
G1 F886
G1 X95.549 Y104.451 E59.64597
G1 X95.549 Y95.549 E60.07408
G1 X104.451 Y95.549 E60.50219
G1 X104.451 Y104.391 E60.92741
G1 X104.554 Y104.837 F7800.000
G1 X104.775 Y104.775
G1 F886
G1 X95.225 Y104.775 E61.38674
G1 X95.225 Y95.225 E61.84606
G1 X104.775 Y95.225 E62.30538
G1 X104.775 Y104.715 E62.76182
G1 X104.389 Y104.671 F7800.000
G1 Z5.450 F7800.000
G1 X104.451 Y104.451
G1 F886
G1 X95.549 Y104.451 E63.18993
G1 X95.549 Y95.549 E63.61804
G1 X104.451 Y95.549 E64.04615
G1 X104.451 Y104.391 E64.47137
G1 X104.554 Y104.837 F7800.000
G1 X104.775 Y104.775
G1 F886
G1 X95.225 Y104.775 E64.93070
G1 X95.225 Y95.225 E65.39002
G1 X104.775 Y95.225 E65.84934
G1 X104.775 Y104.715 E66.30578
G1 X104.389 Y104.671 F7800.000
G1 Z5.750 F7800.000
G1 X104.451 Y104.451
G1 F886
G1 X95.549 Y104.451 E66.73389
G1 X95.549 Y95.549 E67.16200
G1 X104.451 Y95.549 E67.59011
G1 X104.451 Y104.391 E68.01533
G1 X104.554 Y104.837 F7800.000
G1 X104.775 Y104.775
G1 F886
G1 X95.225 Y104.775 E68.47466
G1 X95.225 Y95.225 E68.93398
G1 X104.775 Y95.225 E69.39330
G1 X104.775 Y104.715 E69.84974
G1 X104.389 Y104.671 F7800.000
G1 Z6.050 F7800.000
G1 X104.451 Y104.451
G1 F886
G1 X95.549 Y104.451 E70.27785
G1 X95.549 Y95.549 E70.70596
G1 X104.451 Y95.549 E71.13407
G1 X104.451 Y104.391 E71.55929
G1 X104.554 Y104.837 F7800.000
G1 X104.775 Y104.775
G1 F886
G1 X95.225 Y104.775 E72.01862
G1 X95.225 Y95.225 E72.47794
G1 X104.775 Y95.225 E72.93726
G1 X104.775 Y104.715 E73.39370
G1 X104.389 Y104.671 F7800.000
G1 Z6.350 F7800.000
G1 X104.451 Y104.451
G1 F886
G1 X95.549 Y104.451 E73.82181
G1 X95.549 Y95.549 E74.24992
G1 X104.451 Y95.549 E74.67803
G1 X104.451 Y104.391 E75.10326
G1 X104.554 Y104.837 F7800.000
G1 X104.775 Y104.775
G1 F886
G1 X95.225 Y104.775 E75.56258
G1 X95.225 Y95.225 E76.02190
G1 X104.775 Y95.225 E76.48122
G1 X104.775 Y104.715 E76.93766
G1 X104.389 Y104.671 F7800.000
G1 Z6.650 F7800.000
G1 X104.451 Y104.451
G1 F886
G1 X95.549 Y104.451 E77.36577
G1 X95.549 Y95.549 E77.79388
G1 X104.451 Y95.549 E78.22199
G1 X104.451 Y104.391 E78.64722
G1 X104.554 Y104.837 F7800.000
G1 X104.775 Y104.775
G1 F886
G1 X95.225 Y104.775 E79.10654
G1 X95.225 Y95.225 E79.56586
G1 X104.775 Y95.225 E80.02518
G1 X104.775 Y104.715 E80.48162
G1 X104.389 Y104.671 F7800.000
G1 Z6.950 F7800.000
G1 X104.451 Y104.451
G1 F886
G1 X95.549 Y104.451 E80.90973
G1 X95.549 Y95.549 E81.33784
G1 X104.451 Y95.549 E81.76595
G1 X104.451 Y104.391 E82.19118
G1 X104.554 Y104.837 F7800.000
G1 X104.775 Y104.775
G1 F886
G1 X95.225 Y104.775 E82.65050
G1 X95.225 Y95.225 E83.10982
G1 X104.775 Y95.225 E83.56914
G1 X104.775 Y104.715 E84.02558
G1 X104.389 Y104.671 F7800.000
G1 Z7.250 F7800.000
G1 X104.451 Y104.451
G1 F886
G1 X95.549 Y104.451 E84.45369
G1 X95.549 Y95.549 E84.88180
G1 X104.451 Y95.549 E85.30991
G1 X104.451 Y104.391 E85.73514
G1 X104.554 Y104.837 F7800.000
G1 X104.775 Y104.775
G1 F886
G1 X95.225 Y104.775 E86.19446
G1 X95.225 Y95.225 E86.65378
G1 X104.775 Y95.225 E87.11310
G1 X104.775 Y104.715 E87.56954
G1 X104.389 Y104.671 F7800.000
G1 Z7.550 F7800.000
G1 X104.451 Y104.451
G1 F886
G1 X95.549 Y104.451 E87.99765
G1 X95.549 Y95.549 E88.42576
G1 X104.451 Y95.549 E88.85387
G1 X104.451 Y104.391 E89.27910
G1 X104.554 Y104.837 F7800.000
G1 X104.775 Y104.775
G1 F886
G1 X95.225 Y104.775 E89.73842
G1 X95.225 Y95.225 E90.19774
G1 X104.775 Y95.225 E90.65706
G1 X104.775 Y104.715 E91.11350
G1 X104.389 Y104.671 F7800.000
G1 Z7.850 F7800.000
G1 X104.451 Y104.451
G1 F886
G1 X95.549 Y104.451 E91.54161
G1 X95.549 Y95.549 E91.96972
G1 X104.451 Y95.549 E92.39783
G1 X104.451 Y104.391 E92.82306
G1 X104.554 Y104.837 F7800.000
G1 X104.775 Y104.775
G1 F886
G1 X95.225 Y104.775 E93.28238
G1 X95.225 Y95.225 E93.74170
G1 X104.775 Y95.225 E94.20102
G1 X104.775 Y104.715 E94.65746
G1 X104.389 Y104.671 F7800.000
G1 Z8.150 F7800.000
G1 X104.451 Y104.451
G1 F886
G1 X95.549 Y104.451 E95.08557
G1 X95.549 Y95.549 E95.51368
G1 X104.451 Y95.549 E95.94179
G1 X104.451 Y104.391 E96.36702
G1 X104.554 Y104.837 F7800.000
G1 X104.775 Y104.775
G1 F886
G1 X95.225 Y104.775 E96.82634
G1 X95.225 Y95.225 E97.28566
G1 X104.775 Y95.225 E97.74498
G1 X104.775 Y104.715 E98.20142
G1 X104.389 Y104.671 F7800.000
G1 Z8.450 F7800.000
G1 X104.451 Y104.451
G1 F886
G1 X95.549 Y104.451 E98.62953
G1 X95.549 Y95.549 E99.05764
G1 X104.451 Y95.549 E99.48575
G1 X104.451 Y104.391 E99.91098
G1 X104.554 Y104.837 F7800.000
G1 X104.775 Y104.775
G1 F886
G1 X95.225 Y104.775 E100.37030
G1 X95.225 Y95.225 E100.82962
G1 X104.775 Y95.225 E101.28894
G1 X104.775 Y104.715 E101.74538
G1 X104.389 Y104.671 F7800.000
G1 Z8.750 F7800.000
G1 X104.451 Y104.451
G1 F886
G1 X95.549 Y104.451 E102.17349
G1 X95.549 Y95.549 E102.60160
G1 X104.451 Y95.549 E103.02971
G1 X104.451 Y104.391 E103.45494
G1 X104.554 Y104.837 F7800.000
G1 X104.775 Y104.775
G1 F886
G1 X95.225 Y104.775 E103.91426
G1 X95.225 Y95.225 E104.37358
G1 X104.775 Y95.225 E104.83290
G1 X104.775 Y104.715 E105.28934
G1 X104.389 Y104.671 F7800.000
G1 Z9.050 F7800.000
G1 X104.451 Y104.451
G1 F886
G1 X95.549 Y104.451 E105.71745
G1 X95.549 Y95.549 E106.14556
G1 X104.451 Y95.549 E106.57367
G1 X104.451 Y104.391 E106.99890
G1 X104.554 Y104.837 F7800.000
G1 X104.775 Y104.775
G1 F886
G1 X95.225 Y104.775 E107.45822
G1 X95.225 Y95.225 E107.91754
