; generated by PrusaSlicer 2.2.0+linux-x64 on 2020-11-24 at 13:57:54 UTC

; 

; external perimeters extrusion width = 0.60mm
; perimeters extrusion width = 0.50mm
; infill extrusion width = 0.50mm
; solid infill extrusion width = 0.50mm
; top infill extrusion width = 0.45mm
; first layer extrusion width = 0.42mm

M73 P0 R4
M73 Q0 S4
M201 X1000 Y1000 Z1000 E5000 ; sets maximum accelerations, mm/sec^2
M203 X200 Y200 Z12 E120 ; sets maximum feedrates, mm/sec
M204 P1250 R1250 T1250 ; sets acceleration (P, T) and retract acceleration (R), mm/sec^2
M205 X8.00 Y8.00 Z0.40 E4.50 ; sets the jerk limits, mm/sec
M205 S0 T0 ; sets the minimum extruding and travel feed rate, mm/sec
M107
M862.3 P "MK3S" ; printer model check
M862.1 P0.4 ; nozzle diameter check
M115 U3.8.1 ; tell printer latest fw version
G90 ; use absolute coordinates
M83 ; extruder relative mode
M104 S240 ; set extruder temp
M140 S85 ; set bed temp
M190 S85 ; wait for bed temp
M109 S240 ; wait for extruder temp
G28 W ; home all without mesh bed level
G80 ; mesh bed leveling
G1 Y-3.0 F1000.0 ; go outside print area
G92 E0.0
G1 X60.0 E9.0 F1000.0 ; intro line
M73 Q1 S4
M73 P1 R4
G1 X100.0 E12.5 F1000.0 ; intro line
G92 E0.0
M221 S95
G21 ; set units to millimeters
G90 ; use absolute coordinates
M83 ; use relative distances for extrusion
M900 K45 ; Filament gcode
;BEFORE_LAYER_CHANGE
G92 E0.0
;0.2


G1 E-1.40000 F2100.00000
G1 Z0.200 F10800.000
;AFTER_LAYER_CHANGE
;0.2
G1 Z0.400
G1 X117.061 Y98.921
G1 Z0.200
G1 E1.40000 F2100.00000
M204 S1000
G1 F1200.000
G1 X117.508 Y98.104 E0.02922
G1 X117.947 Y97.636 E0.02011
G1 X118.472 Y97.267 E0.02011
G1 X119.061 Y97.013 E0.02011
G1 X119.694 Y96.884 E0.02025
G1 X130.004 Y96.869 E0.32327
G1 X131.083 Y97.062 E0.03436
G1 X132.026 Y97.612 E0.03423
G1 X132.725 Y98.457 E0.03436
G1 X133.089 Y99.490 E0.03436
G1 X133.128 Y110.153 E0.33432
G1 X132.942 Y111.071 E0.02936
G1 X132.492 Y111.896 E0.02950
G1 X132.020 Y112.393 E0.02148
G1 X131.447 Y112.777 E0.02161
G1 X130.804 Y113.026 E0.02161
G1 X130.127 Y113.129 E0.02148
G1 X119.834 Y113.127 E0.32274
G1 X118.921 Y112.939 E0.02922
G1 X118.104 Y112.492 E0.02922
G1 X117.607 Y112.020 E0.02148
G1 X117.223 Y111.447 E0.02161
G1 X116.974 Y110.804 E0.02161
G1 X116.871 Y110.127 E0.02148
G1 X116.873 Y99.834 E0.32274
G1 X117.049 Y98.980 E0.02734
G1 X117.416 Y99.055 F10800.000
G1 F1200.000
G1 X117.833 Y98.300 E0.02707
G1 X118.226 Y97.893 E0.01771
G1 X118.689 Y97.578 E0.01758
G1 X119.207 Y97.362 E0.01758
G1 X119.762 Y97.256 E0.01771
G1 X130.004 Y97.246 E0.32114
G1 X130.959 Y97.418 E0.03044
G1 X131.799 Y97.914 E0.03056
G1 X132.410 Y98.668 E0.03044
G1 X132.724 Y99.591 E0.03056
G1 X132.751 Y110.127 E0.33036
G1 X132.582 Y110.959 E0.02663
G1 X132.167 Y111.700 E0.02663
G1 X131.746 Y112.130 E0.01886
G1 X131.245 Y112.457 E0.01873
G1 X130.682 Y112.668 E0.01886
G1 X130.091 Y112.753 E0.01873
G1 X119.865 Y112.751 E0.32063
G1 X119.037 Y112.580 E0.02651
G1 X118.300 Y112.167 E0.02651
G1 X117.870 Y111.746 E0.01886
G1 X117.543 Y111.245 E0.01873
G1 X117.332 Y110.682 E0.01886
G1 X117.247 Y110.091 E0.01873
G1 X117.249 Y99.865 E0.32063
G1 X117.404 Y99.114 E0.02403
G1 F8640.000
G1 X117.833 Y98.300 E-0.21265
G1 X118.226 Y97.893 E-0.13042
G1 X118.689 Y97.578 E-0.12947
G1 X119.207 Y97.362 E-0.12947
G1 X119.762 Y97.256 E-0.13042
G1 X122.350 Y97.254 E-0.59758
G1 E-0.07000 F2100.00000
G1 Z0.400 F10800.000
G1 X118.896 Y97.895
G1 Z0.200
G1 E1.40000 F2100.00000
G1 F1200.000
G1 X119.824 Y97.629 E0.03024
G1 X130.004 Y97.623 E0.31918
G1 X130.842 Y97.777 E0.02673
G1 X131.569 Y98.215 E0.02661
G1 X132.096 Y98.880 E0.02661
G1 X132.356 Y99.687 E0.02661
G1 X132.375 Y110.103 E0.32657
G1 X132.223 Y110.842 E0.02367
G1 X131.849 Y111.494 E0.02355
G1 X131.486 Y111.856 E0.01609
G1 X131.053 Y112.131 E0.01609
G1 X130.571 Y112.308 E0.01609
G1 X130.062 Y112.376 E0.01609
G1 X119.893 Y112.375 E0.31883
G1 X119.158 Y112.223 E0.02355
G1 X118.506 Y111.849 E0.02355
G1 X118.144 Y111.486 E0.01609
G1 X117.869 Y111.053 E0.01609
G1 X117.692 Y110.571 E0.01609
G1 X117.624 Y110.062 E0.01609
G1 X117.625 Y99.893 E0.31883
G1 X117.777 Y99.158 E0.02355
G1 X118.151 Y98.506 E0.02355
G1 X118.850 Y97.933 E0.02836
G1 F8640.000
G1 X119.824 Y97.629 E-0.23550
G1 X124.564 Y97.626 E-1.09450
G1 E-0.07000 F2100.00000
G1 Z0.400 F10800.000
G1 X120.787 Y100.787
G1 Z0.200
G1 E1.40000 F2100.00000
G1 F1200.000
G1 X129.213 Y100.787 E0.26419
G1 X129.213 Y109.213 E0.26419
G1 X120.787 Y109.213 E0.26419
G1 X120.787 Y100.847 E0.26231
G1 X120.410 Y100.410 F10800.000
G1 F1200.000
G1 X129.590 Y100.410 E0.28783
G1 X129.590 Y109.590 E0.28783
G1 X120.410 Y109.590 E0.28783
G1 X120.410 Y100.470 E0.28595
G1 X120.796 Y100.514 F10800.000
G1 F8640.000
G1 X126.170 Y100.432 E-1.33000
G1 E-0.07000 F2100.00000
G1 Z0.400 F10800.000
G1 X129.100 Y101.686
G1 Z0.200
G1 E1.40000 F2100.00000
G1 F1200.000
G1 X128.483 Y101.070 E0.02815
G1 X127.934 Y101.070 E0.01773
G1 X128.930 Y102.066 E0.04547
G1 X128.930 Y102.615 E0.01773
G1 X127.385 Y101.070 E0.07055
G1 X126.836 Y101.070 E0.01773
G1 X128.930 Y103.164 E0.09563
G1 X128.930 Y103.713 E0.01773
G1 X126.287 Y101.070 E0.12070
G1 X125.738 Y101.070 E0.01773
G1 X128.930 Y104.262 E0.14578
G1 X128.930 Y104.812 E0.01773
G1 X125.188 Y101.070 E0.17085
G1 X124.639 Y101.070 E0.01773
G1 X128.930 Y105.361 E0.19593
G1 X128.930 Y105.910 E0.01773
G1 X124.090 Y101.070 E0.22100
G1 X123.541 Y101.070 E0.01773
G1 X128.930 Y106.459 E0.24608
G1 X128.930 Y107.008 E0.01773
G1 X122.992 Y101.070 E0.27116
G1 X122.443 Y101.070 E0.01773
G1 X128.930 Y107.557 E0.29623
G1 X128.930 Y108.106 E0.01773
G1 X121.894 Y101.070 E0.32131
G1 X121.344 Y101.070 E0.01773
G1 X128.930 Y108.656 E0.34638
G1 X128.930 Y108.930 E0.00886
G1 X128.655 Y108.930 E0.00887
G1 X121.070 Y101.345 E0.34638
G1 X121.070 Y101.894 E0.01773
G1 X128.106 Y108.930 E0.32130
G1 X127.557 Y108.930 E0.01773
G1 X121.070 Y102.443 E0.29623
G1 X121.070 Y102.992 E0.01773
G1 X127.008 Y108.930 E0.27115
G1 X126.459 Y108.930 E0.01773
G1 X121.070 Y103.541 E0.24607
G1 X121.070 Y104.090 E0.01773
G1 X125.910 Y108.930 E0.22100
G1 X125.361 Y108.930 E0.01773
G1 X121.070 Y104.639 E0.19592
G1 X121.070 Y105.189 E0.01773
G1 X124.811 Y108.930 E0.17085
G1 X124.262 Y108.930 E0.01773
G1 X121.070 Y105.738 E0.14577
G1 X121.070 Y106.287 E0.01773
G1 X123.713 Y108.930 E0.12070
G1 X123.164 Y108.930 E0.01773
G1 X121.070 Y106.836 E0.09562
G1 X121.070 Y107.385 E0.01773
G1 X122.615 Y108.930 E0.07054
G1 X122.066 Y108.930 E0.01773
G1 X121.070 Y107.934 E0.04547
G1 X121.070 Y108.484 E0.01773
G1 X121.686 Y109.100 E0.02814
;BEFORE_LAYER_CHANGE
G92 E0.0
;0.5


G1 F8640.000
G1 X121.070 Y108.484 E-0.20124
G1 X121.070 Y107.934 E-0.12680
G1 X122.066 Y108.930 E-0.32516
G1 X122.615 Y108.930 E-0.12680
G1 X121.070 Y107.385 E-0.50448
G1 X121.070 Y107.188 E-0.04552
G1 E-0.07000 F2100.00000
G1 Z0.400 F10800.000
G1 Z0.500
;AFTER_LAYER_CHANGE
;0.5
M104 S250 ; set temperature
M140 S90 ; set bed temperature
G1 Z0.700
G1 X132.725 Y98.457
G1 Z0.500
G1 E1.40000 F2100.00000
G1 F1217
G1 X133.089 Y99.490 E0.04861
G1 X133.128 Y110.153 E0.47294
G1 X132.942 Y111.071 E0.04153
G1 X132.492 Y111.896 E0.04172
G1 X132.020 Y112.393 E0.03038
G1 X131.447 Y112.777 E0.03057
G1 X130.804 Y113.026 E0.03057
G1 X130.127 Y113.129 E0.03038
G1 X119.834 Y113.127 E0.45655
G1 X118.921 Y112.939 E0.04134
G1 X118.104 Y112.492 E0.04134
G1 X117.607 Y112.020 E0.03038
G1 X117.223 Y111.447 E0.03057
G1 X116.974 Y110.804 E0.03057
G1 X116.871 Y110.127 E0.03038
G1 X116.873 Y99.834 E0.45655
G1 X117.061 Y98.921 E0.04134
G1 X117.508 Y98.104 E0.04134
G1 X117.947 Y97.636 E0.02845
G1 X118.472 Y97.267 E0.02845
G1 X119.061 Y97.013 E0.02845
G1 X119.694 Y96.884 E0.02865
G1 X130.004 Y96.869 E0.45731
G1 X131.083 Y97.062 E0.04861
G1 X132.026 Y97.612 E0.04842
G1 X132.686 Y98.411 E0.04595
G1 X132.394 Y98.648 F10800.000
G1 F1217
G1 X132.724 Y99.591 E0.04430
G1 X132.751 Y110.127 E0.46734
G1 X132.582 Y110.959 E0.03767
G1 X132.167 Y111.700 E0.03767
G1 X131.746 Y112.130 E0.02668
G1 X131.245 Y112.457 E0.02650
G1 X130.682 Y112.668 E0.02668
G1 X130.091 Y112.753 E0.02650
G1 X119.865 Y112.751 E0.45358
G1 X119.037 Y112.580 E0.03750
G1 X118.300 Y112.167 E0.03750
G1 X117.870 Y111.746 E0.02668
G1 X117.543 Y111.245 E0.02650
G1 X117.332 Y110.682 E0.02668
G1 X117.247 Y110.091 E0.02650
G1 X117.249 Y99.865 E0.45358
G1 X117.420 Y99.037 E0.03750
G1 X117.833 Y98.300 E0.03750
G1 X118.226 Y97.893 E0.02505
G1 X118.689 Y97.578 E0.02487
G1 X119.207 Y97.362 E0.02487
G1 X119.762 Y97.256 E0.02505
G1 X130.004 Y97.246 E0.45430
G1 X130.959 Y97.418 E0.04306
G1 X131.799 Y97.914 E0.04323
G1 X132.357 Y98.601 E0.03926
G1 X132.096 Y98.880 F10800.000
G1 F1217
G1 X132.356 Y99.687 E0.03764
G1 X132.375 Y110.103 E0.46197
G1 X132.223 Y110.842 E0.03348
G1 X131.849 Y111.494 E0.03331
G1 X131.486 Y111.856 E0.02276
G1 X131.053 Y112.131 E0.02276
G1 X130.571 Y112.308 E0.02276
G1 X130.062 Y112.376 E0.02276
G1 X119.893 Y112.375 E0.45103
G1 X119.158 Y112.223 E0.03331
G1 X118.506 Y111.849 E0.03331
G1 X118.144 Y111.486 E0.02276
G1 X117.869 Y111.053 E0.02276
G1 X117.692 Y110.571 E0.02276
G1 X117.624 Y110.062 E0.02276
G1 X117.625 Y99.893 E0.45103
G1 X117.777 Y99.158 E0.03331
G1 X118.151 Y98.506 E0.03331
G1 X118.896 Y97.895 E0.04278
G1 X119.824 Y97.629 E0.04278
G1 X130.004 Y97.623 E0.45153
G1 X130.842 Y97.777 E0.03781
G1 X131.569 Y98.215 E0.03764
G1 X132.059 Y98.833 E0.03498
G1 F8640.000
G1 X132.356 Y99.687 E-0.20898
G1 X132.365 Y104.542 E-1.12102
G1 E-0.07000 F2100.00000
G1 Z0.700 F10800.000
G1 X129.214 Y100.786
G1 Z0.500
G1 E1.40000 F2100.00000
M204 S800
G1 F1217
G1 X129.214 Y109.214 E0.45796
G1 X120.786 Y109.214 E0.45796
G1 X120.786 Y100.786 E0.45796
G1 X129.154 Y100.786 E0.45470
M204 S1000
G1 X129.700 Y100.300 F10800.000
M204 S800
G1 F1217
G1 X129.700 Y109.700 E0.62797
G1 X120.300 Y109.700 E0.62797
G1 X120.300 Y100.300 E0.62797
G1 X129.640 Y100.300 E0.62396
M204 S1000
G1 X129.596 Y100.686 F10800.000
G1 F8640.000
G1 X129.677 Y106.060 E-1.33000
G1 E-0.07000 F2100.00000
G1 Z0.700 F10800.000
G1 X128.180 Y109.084
G1 Z0.500
G1 E1.40000 F2100.00000
G1 F1217
G1 X128.888 Y108.376 E0.05577
G1 X128.888 Y107.744 E0.03518
G1 X127.744 Y108.888 E0.09008
G1 X127.113 Y108.888 E0.03518
G1 X128.888 Y107.113 E0.13984
G1 X128.888 Y106.481 E0.03518
G1 X126.481 Y108.888 E0.18959
G1 X125.849 Y108.888 E0.03518
G1 X128.888 Y105.849 E0.23935
G1 X128.888 Y105.218 E0.03518
G1 X125.218 Y108.888 E0.28911
G1 X124.586 Y108.888 E0.03518
G1 X128.888 Y104.586 E0.33887
G1 X128.888 Y103.955 E0.03518
G1 X123.955 Y108.888 E0.38862
G1 X123.323 Y108.888 E0.03518
G1 X128.888 Y103.323 E0.43838
G1 X128.888 Y102.691 E0.03518
G1 X122.691 Y108.888 E0.48814
G1 X122.060 Y108.888 E0.03518
G1 X128.888 Y102.060 E0.53789
G1 X128.888 Y101.428 E0.03518
G1 X121.428 Y108.888 E0.58765
G1 X121.112 Y108.888 E0.01759
G1 X121.112 Y108.572 E0.01759
G1 X128.572 Y101.112 E0.58764
G1 X127.940 Y101.112 E0.03518
G1 X121.112 Y107.940 E0.53788
G1 X121.112 Y107.309 E0.03518
G1 X127.309 Y101.112 E0.48813
G1 X126.677 Y101.112 E0.03518
G1 X121.112 Y106.677 E0.43837
G1 X121.112 Y106.045 E0.03518
G1 X126.045 Y101.112 E0.38861
G1 X125.414 Y101.112 E0.03518
G1 X121.112 Y105.414 E0.33886
G1 X121.112 Y104.782 E0.03518
G1 X124.782 Y101.112 E0.28910
G1 X124.151 Y101.112 E0.03518
G1 X121.112 Y104.151 E0.23934
G1 X121.112 Y103.519 E0.03518
G1 X123.519 Y101.112 E0.18959
G1 X122.887 Y101.112 E0.03518
G1 X121.112 Y102.887 E0.13983
G1 X121.112 Y102.256 E0.03518
G1 X122.256 Y101.112 E0.09007
G1 X121.624 Y101.112 E0.03518
G1 X120.916 Y101.820 E0.05576
;BEFORE_LAYER_CHANGE
G92 E0.0
;0.8


G1 F8640.000
G1 X121.624 Y101.112 E-0.23113
G1 X122.256 Y101.112 E-0.14584
G1 X121.112 Y102.256 E-0.37336
G1 X121.112 Y102.887 E-0.14584
G1 X122.441 Y101.559 E-0.43383
G1 E-0.07000 F2100.00000
G1 Z0.700 F10800.000
G1 Z0.800
;AFTER_LAYER_CHANGE
;0.8
G1 Z1.000
G1 X131.083 Y97.062
G1 Z0.800
G1 E1.40000 F2100.00000
G1 F1287
G1 X132.026 Y97.612 E0.04842
G1 X132.725 Y98.457 E0.04861
G1 X133.089 Y99.490 E0.04861
G1 X133.128 Y110.153 E0.47294
G1 X132.942 Y111.071 E0.04153
G1 X132.492 Y111.896 E0.04172
G1 X132.020 Y112.393 E0.03038
G1 X131.447 Y112.777 E0.03057
G1 X130.804 Y113.026 E0.03057
G1 X130.127 Y113.129 E0.03038
G1 X119.834 Y113.127 E0.45655
G1 X118.921 Y112.939 E0.04134
G1 X118.104 Y112.492 E0.04134
G1 X117.607 Y112.020 E0.03038
G1 X117.223 Y111.447 E0.03057
G1 X116.974 Y110.804 E0.03057
G1 X116.871 Y110.127 E0.03038
G1 X116.873 Y99.834 E0.45655
G1 X117.061 Y98.921 E0.04134
G1 X117.508 Y98.104 E0.04134
G1 X117.947 Y97.636 E0.02845
G1 X118.472 Y97.267 E0.02845
G1 X119.061 Y97.013 E0.02845
G1 X119.694 Y96.884 E0.02865
G1 X130.004 Y96.869 E0.45731
G1 X131.024 Y97.051 E0.04595
G1 X130.958 Y97.418 F10800.000
G1 F1287
G1 X131.799 Y97.914 E0.04329
G1 X132.410 Y98.668 E0.04306
G1 X132.724 Y99.591 E0.04323
G1 X132.751 Y110.127 E0.46734
G1 X132.582 Y110.959 E0.03767
G1 X132.167 Y111.700 E0.03767
G1 X131.746 Y112.130 E0.02668
G1 X131.245 Y112.457 E0.02650
G1 X130.682 Y112.668 E0.02668
G1 X130.091 Y112.753 E0.02650
G1 X119.865 Y112.751 E0.45358
G1 X119.037 Y112.580 E0.03750
G1 X118.300 Y112.167 E0.03750
G1 X117.870 Y111.746 E0.02668
G1 X117.543 Y111.245 E0.02650
G1 X117.332 Y110.682 E0.02668
G1 X117.247 Y110.091 E0.02650
G1 X117.249 Y99.865 E0.45358
G1 X117.420 Y99.037 E0.03750
G1 X117.833 Y98.300 E0.03750
G1 X118.226 Y97.893 E0.02505
G1 X118.689 Y97.578 E0.02487
G1 X119.207 Y97.362 E0.02487
G1 X119.762 Y97.256 E0.02505
G1 X130.004 Y97.246 E0.45430
G1 X130.899 Y97.407 E0.04033
G1 X130.831 Y97.775 F10800.000
G1 F1287
G1 X131.569 Y98.215 E0.03810
G1 X132.096 Y98.880 E0.03764
G1 X132.356 Y99.687 E0.03764
G1 X132.375 Y110.103 E0.46197
G1 X132.223 Y110.842 E0.03348
G1 X131.849 Y111.494 E0.03331
G1 X131.486 Y111.856 E0.02276
G1 X131.053 Y112.131 E0.02276
G1 X130.571 Y112.308 E0.02276
G1 X130.062 Y112.376 E0.02276
G1 X119.893 Y112.375 E0.45103
G1 X119.158 Y112.223 E0.03331
G1 X118.506 Y111.849 E0.03331
G1 X118.144 Y111.486 E0.02276
G1 X117.869 Y111.053 E0.02276
G1 X117.692 Y110.571 E0.02276
G1 X117.624 Y110.062 E0.02276
G1 X117.625 Y99.893 E0.45103
G1 X117.777 Y99.158 E0.03331
G1 X118.151 Y98.506 E0.03331
G1 X118.896 Y97.895 E0.04278
G1 X119.824 Y97.629 E0.04278
G1 X130.004 Y97.623 E0.45153
G1 X130.772 Y97.764 E0.03466
G1 F8640.000
G1 X131.569 Y98.215 E-0.21139
G1 X132.096 Y98.880 E-0.19595
G1 X132.356 Y99.687 E-0.19595
G1 X132.362 Y102.835 E-0.72670
G1 E-0.07000 F2100.00000
G1 Z1.000 F10800.000
G1 X129.214 Y100.786
G1 Z0.800
G1 E1.40000 F2100.00000
M204 S800
G1 F1287
G1 X129.214 Y109.214 E0.45796
G1 X120.786 Y109.214 E0.45796
G1 X120.786 Y100.786 E0.45796
G1 X129.154 Y100.786 E0.45470
M204 S1000
G1 X129.700 Y100.300 F10800.000
M204 S800
G1 F1287
G1 X129.700 Y109.700 E0.62797
G1 X120.300 Y109.700 E0.62797
G1 X120.300 Y100.300 E0.62797
G1 X129.640 Y100.300 E0.62396
M73 Q25 S3
M204 S1000
G1 X129.596 Y100.686 F10800.000
G1 F8640.000
G1 X129.677 Y106.060 E-1.33000
G1 E-0.07000 F2100.00000
G1 Z1.000 F10800.000
G1 X121.696 Y109.086
G1 Z0.800
G1 E1.40000 F2100.00000
M73 P25 R3
G1 F1287
G1 X121.087 Y108.477 E0.04158
G1 X121.087 Y107.930 E0.02643
G1 X122.070 Y108.913 E0.06710
G1 X122.618 Y108.913 E0.02643
G1 X121.087 Y107.382 E0.10448
G1 X121.087 Y106.835 E0.02643
G1 X123.165 Y108.913 E0.14185
G1 X123.712 Y108.913 E0.02643
G1 X121.087 Y106.288 E0.17922
G1 X121.087 Y105.740 E0.02643
G1 X124.260 Y108.913 E0.21660
G1 X124.807 Y108.913 E0.02643
G1 X121.087 Y105.193 E0.25397
G1 X121.087 Y104.645 E0.02643
G1 X125.355 Y108.913 E0.29134
G1 X125.902 Y108.913 E0.02643
G1 X121.087 Y104.098 E0.32872
G1 X121.087 Y103.551 E0.02643
G1 X126.449 Y108.913 E0.36609
G1 X126.997 Y108.913 E0.02643
G1 X121.087 Y103.003 E0.40346
G1 X121.087 Y102.456 E0.02643
G1 X127.544 Y108.913 E0.44083
G1 X128.092 Y108.913 E0.02643
G1 X121.087 Y101.908 E0.47821
G1 X121.087 Y101.361 E0.02643
G1 X128.639 Y108.913 E0.51558
G1 X128.913 Y108.913 E0.01322
G1 X128.913 Y108.639 E0.01321
G1 X121.361 Y101.087 E0.51559
G1 X121.908 Y101.087 E0.02643
G1 X128.913 Y108.092 E0.47821
G1 X128.913 Y107.544 E0.02643
G1 X122.456 Y101.087 E0.44084
G1 X123.003 Y101.087 E0.02643
G1 X128.913 Y106.997 E0.40347
G1 X128.913 Y106.449 E0.02643
G1 X123.551 Y101.087 E0.36610
